X: 42
T: No_48_War_Song_(a).krn
N: Derived from No_48_War_Song_(a).krn
%%abc-version 2.0
%%abcx-abcm2ps-target-version 5.9.1 (29 Sep 2008)
%%abc-creator hum2abc beta
%%abcx-conversion-date 2019/03/15 08:25:35
%%humdrum-veritas 2544370282
%%humdrum-veritas-data 4191912429
%%linebreak <none>
%%barnumbers 0
L: 1/16
M: 3/4
K: Eb clef=bass
[K:clef=bass][M:3/4]E,2E,2E,4E,4 ]|:  
[M:2/4]EEEB,E4 | 
CB,3 B,3F | 
[M:3/8]F3FE2 | 
[M:2/4]B,4G,F,F,B, | 
[M:3/8]C3CB,2 | 
[M:2/4]G,G,F,E, E,3F, | 
G,3G, (3G,2G,2F,2 | 
[M:3/4]E,4E,4E,2 z2 | 
[M:2/4]B,B,B,G,B,4 | 
G,F,3 F,3B, | 
[M:3/8]C3CB,2 | 
[M:2/4](3G,2G,2F,2 E,2 z F, | 
G,3G, (3G,2G,2F,2 | 
[M:3/4]E,4E,4E,4 :|]  
[M:2/4]EEEB,E4 | 
CB,3 B,3E | 
[M:3/8]F3FE2 | 
[M:2/4]B,4G,F,F,B, | 
[M:3/8]C3CB,2 | 
[M:2/4]G,G,F,E, E,2 z F, | 
G,3G, (3G,2G,2F,2 | 
[M:3/4]E,4E,4E,4 |]  



